/* XPM */
static char *_d5babc62d0647128e1ef5bee26a427armA2J16WtZizDc5b[] = {
/* columns rows colors chars-per-pixel */
"32 32 138 2 ",
"   c #00F501",
".  c #01FE02",
"X  c #0AFC04",
"o  c #0DF40E",
"O  c #02FD09",
"+  c #0AF80A",
"@  c #14F30E",
"#  c #12ED14",
"$  c #19EF15",
"%  c #10E71F",
"&  c #16EF18",
"*  c #1BED1A",
"=  c #0DF414",
"-  c #0DFC13",
";  c #0FF519",
":  c #13F214",
">  c #18F213",
",  c #13F119",
"<  c #19F41A",
"1  c #21E91E",
"2  c #22DF21",
"3  c #23DF28",
"4  c #2EDF2F",
"5  c #35D42B",
"6  c #39D42E",
"7  c #30DE2F",
"8  c #38DA2F",
"9  c #38CD33",
"0  c #32D733",
"q  c #3BD535",
"w  c #36DA33",
"e  c #3AD934",
"r  c #37D739",
"t  c #3CD53C",
"y  c #36D93A",
"u  c #3BD93B",
"i  c #19E021",
"p  c #1DE925",
"a  c #1CFF21",
"s  c #23E525",
"d  c #2BE324",
"f  c #25E42B",
"g  c #2AE32D",
"h  c #27EA29",
"j  c #2BE82C",
"k  c #32EC2D",
"l  c #2CE532",
"z  c #28EA31",
"x  c #37E13A",
"c  c #44D43E",
"v  c #41CE42",
"b  c #47D042",
"n  c #4DC951",
"m  c #4EC658",
"M  c #58C254",
"N  c #5BC15B",
"B  c #A2FF9D",
"V  c #A3FFA4",
"C  c #ABFFAD",
"Z  c #B5FFB5",
"A  c #BDFFB8",
"S  c #C6FFBD",
"D  c #C9FFBD",
"F  c #BDFFC5",
"G  c #C5FFC4",
"H  c #CAFFC5",
"J  c #C7FFCA",
"K  c #CBFFCA",
"L  c #D3FFCD",
"P  c #CEFFD3",
"I  c #D5FFD2",
"U  c #D5FFD5",
"Y  c #D5FFD6",
"T  c #D5FFD7",
"R  c #D6FFD6",
"E  c #D6FFD7",
"W  c #D4FFD4",
"Q  c #D9FFD3",
"!  c #DAFFD5",
"~  c #D3FFD9",
"^  c #D6FFD8",
"/  c #D7FFDC",
"(  c #D4FFDE",
")  c #D5FFDF",
"_  c #D5FFDB",
"`  c #D8FFD8",
"'  c #D9FFD8",
"]  c #DDFFDA",
"[  c #D9FFDC",
"{  c #D8FFDF",
"}  c #DDFFDD",
"|  c #DEFFDE",
" . c #DBFFDB",
".. c #E7FFDF",
"X. c #DFFFE1",
"o. c #DFFFE3",
"O. c #DBFFE2",
"+. c #E5FFE7",
"@. c #E4FFE3",
"#. c #EBFFE3",
"$. c #ECFFE7",
"%. c #EAFFE5",
"&. c #E6FFE8",
"*. c #E7FFE8",
"=. c #E7FFED",
"-. c #E5FFEF",
";. c #E6FFE9",
":. c #EFFFE9",
">. c #EEFFEA",
",. c #EFFFEB",
"<. c #EAFFEC",
"1. c #EBFFEC",
"2. c #EAFFED",
"3. c #EBFFED",
"4. c #E8FFEF",
"5. c #ECFFED",
"6. c #EDFFEF",
"7. c #EFFFEF",
"8. c #EDFFEC",
"9. c #F1FFE7",
"0. c #F0FFEB",
"q. c #F1FFED",
"w. c #F4FFEC",
"e. c #E7FFF4",
"r. c #E8FFF1",
"t. c #ECFFF1",
"y. c #EFFFF1",
"u. c #EDFFF2",
"i. c #EFFFF2",
"p. c #ECFFF3",
"a. c #F1FFF3",
"s. c #F2FFF3",
"d. c #F4FFF3",
"f. c #F3FFF4",
"g. c #F1FFFE",
"h. c #F2FEFE",
"j. c #F4FFFB",
"k. c #F8FFFD",
/* pixels */
". . . . X X + + . . .   X   . . . . . X X . X . O O . . . X . . ",
"O . . . X X O O . O O O X X . . . . X X X     X . O . . X X . . ",
"O O . . X . . . O O O     X . . . . X X   - O . . . . . X X O O ",
"O O . . X . . O * s z f j s f s s g 2 j l i : O . . . . X X O O ",
". . . . X X + p Z L I ` [ [ ) ) [ ) ^ T ~ J C f = O O O . . . . ",
". . . . O X + g L w.#.q.5.4.-.r.y.5.;.} +.T Z x , O + O . . . . ",
"O O . . . O O f I :...L K J G K L K G G G A B d o O O X . . . O ",
"O O . . . . O f ` 0.Q M v u u q c 9 e w q w j # X . X X . . O O ",
"X X X . . . O f } :.K t h # < # # , = - : > o + O . . X X . O O ",
"X X X . . . O g X.5.G 0 # O O O O O . . . X X O O . . . . . O O ",
"X X . . . . O g X.a.K r : O . O O O . . X X . . O O . . . O . . ",
"X . . . . . O g ^ y.P v h : : = = ; : > $ @ . . O O . . O O . . ",
". . . . . . X d ] d.T N b 5 6 e u e 5 5 q k   . . X X X O O . . ",
". . O O . X X d I a.-.T K D S D S S D D H V a . . X X X O O . . ",
". . O O . . X d T k.h.h.y.4.+.4.4.4.%.:.y.P p . . . . . O O . . ",
". . O O . . . s W k.j.e.O.^ ) ) ~ ^ ` ` [ F % O . . . . O O . . ",
". . . . . . O f Q 5.^ m y f p p s s s s s & + . . . O O O . . . ",
"O . . . . . O f ` $.J t & O . . . . . . . . . . . . O O O . . . ",
"O O . . . . O g ] 9.K t * X . . O X . . . X + X . . . X X . . . ",
"O O X . . . O f ! 9.H t * X . . O O . . O X + X . . . X X . . . ",
"O O O . . . . p Q #.G e $ X . . . O . . O O O . . . . . . . . X ",
"O O O . . . . p T +.G w $ X . . . . . . . . . . . . . . . . . . ",
". . X X X X O s ^ ;.G y & O . . . . . . . . . . . . O O . . . . ",
". . . X X X O s ^ 4.P n y g s p s s s 1 * * s * X . O O O . . . ",
". . . . . . . s ` d.:.@.} ` } X.X.[ [ [ ) ) O.F * . X X . . . . ",
"O . . . . . . s K $.%.%.$.5.a.f.f.y.5.5.r.r.p.P 1 . X X . . . . ",
". . . . . . X * Z K H G G G J J K H G S S G K Z > . X X O O . . ",
". . . . . . X : 7 t t t t y y y q e e e 8 e t 4 + . . O O O O . ",
". . . . . . . X : & & & & : : : @ @ : $ > > , = . . . . . . O O ",
". . . . . . . . . . X X X O . . . . O X X X . . . . . . . . O O ",
". . . . O O X . . . . . . . . . . . . . O . . . O O . . . . . X ",
". . . . O O + . . . . . X . . . . O . O O . . . O O . . . . X X "
};
