/* XPM */
static char *da20a292ea42436cde9ebffed81c245dV4Qe8QnoI7ffBh2d[] = {
/* columns rows colors chars-per-pixel */
"32 32 165 2 ",
"   c #06B7D8",
".  c #1BBDDF",
"X  c #39AECF",
"o  c #3DB3CD",
"O  c #3EB8CF",
"+  c #3CABD9",
"@  c #24B7D9",
"#  c #2BB6DD",
"$  c #24BFDB",
"%  c #2BB9DB",
"&  c #34B5D2",
"*  c #38B4D6",
"=  c #33BCD4",
"-  c #3BB9D2",
";  c #35B5DA",
":  c #3BB6DA",
">  c #34BBDB",
",  c #3AB9DB",
"<  c #0EBEE7",
"1  c #05BEEA",
"2  c #0EBFE8",
"3  c #1FB7E6",
"4  c #17BEEB",
"5  c #0CBDF3",
"6  c #25BEE5",
"7  c #29BDE3",
"8  c #24BDEA",
"9  c #2BBFED",
"0  c #36BAE0",
"q  c #3AB8E1",
"w  c #38BBE9",
"e  c #25BCF1",
"r  c #40B7CD",
"t  c #50B0C9",
"y  c #42AEDC",
"u  c #4DB2D0",
"i  c #40B3DF",
"p  c #42BDDC",
"a  c #60AEC4",
"s  c #2DC0D2",
"d  c #24C1DD",
"f  c #29C0DC",
"g  c #33C3DB",
"h  c #0DCBE5",
"j  c #02C1EE",
"k  c #0DC4ED",
"l  c #03C9EC",
"z  c #0CC9ED",
"x  c #1FC2E5",
"c  c #1ACBE3",
"v  c #12C5EE",
"b  c #1BC2ED",
"n  c #14C8E9",
"m  c #1ECBED",
"M  c #02C6F4",
"N  c #0EC4F2",
"B  c #02CDF6",
"V  c #0BCBF5",
"C  c #03C6FE",
"Z  c #09C5FE",
"A  c #02CCFE",
"S  c #0ACBFE",
"D  c #15C4F1",
"F  c #1AC3F5",
"G  c #15CBF5",
"H  c #1BC8F2",
"J  c #10C3FD",
"K  c #01D1F6",
"L  c #08D0F2",
"P  c #01D1FD",
"I  c #0DD0FF",
"U  c #0ED1FF",
"Y  c #0AD1FE",
"T  c #23C2E4",
"R  c #25C0EE",
"E  c #25C4EA",
"W  c #23CCEB",
"Q  c #30C2E7",
"!  c #37C2E9",
"~  c #39C7EB",
"^  c #39C0EF",
"/  c #35CEED",
"(  c #3FC8E8",
")  c #23C1F0",
"_  c #2DCBF4",
"`  c #20CDF8",
"'  c #61C0D2",
"]  c #48CCE5",
"[  c #47C1EA",
"{  c #43CEEF",
"}  c #56CCE8",
"|  c #4BD8EC",
" . c #57CBF4",
".. c #4CD7F6",
"X. c #71CBE6",
"o. c #6AD7EC",
"O. c #74D9EB",
"+. c #61DDFF",
"@. c #6BDDFF",
"#. c #4FE0FF",
"$. c #69E4FF",
"%. c #7FE5FC",
"&. c #73E8FA",
"*. c #89BCCD",
"=. c #8FBED2",
"-. c #80E8FF",
";. c #8EEAFF",
":. c #9AEDFF",
">. c #81F0FF",
",. c #8EF7FF",
"<. c #8FFDFF",
"1. c #95F1FF",
"2. c #91FFFF",
"3. c #99F9FF",
"4. c #A3EFFF",
"5. c #A5FFFF",
"6. c #ADF8FF",
"7. c #AFFFFF",
"8. c #B4FFFF",
"9. c #B6FFFF",
"0. c #B7FFFF",
"q. c #BAFFFF",
"w. c #BFFFFF",
"e. c #BEFFFF",
"r. c #C1F1FF",
"t. c #C0FFFF",
"y. c #C1FFFF",
"u. c #C3FFFF",
"i. c #C2FFFF",
"p. c #C5FFFF",
"a. c #C4FFFF",
"s. c #C7FFFF",
"d. c #C6FFFF",
"f. c #C4FFFF",
"g. c #CBFFFF",
"h. c #C8FFFF",
"j. c #CDFFFF",
"k. c #CFFFFF",
"l. c #CAFFFF",
"z. c #D1FFFF",
"x. c #D0FFFF",
"c. c #D3FFFF",
"v. c #D5FFFF",
"b. c #D4FFFF",
"n. c #D3FFFF",
"m. c #D8FFFF",
"M. c #DBFFFF",
"N. c #DAFFFF",
"B. c #E5FFFF",
"V. c #E7FFFF",
"C. c #E4FFFF",
"Z. c #EAFBFF",
"A. c #E9FFFF",
"S. c #EBFFFF",
"D. c #EDFFFF",
"F. c #ECFFFF",
"G. c #EEFFFF",
"H. c #EAFFFF",
"J. c #F0FCFF",
"K. c #F4FFFF",
"L. c #F6FDFF",
"P. c #FCF8FF",
"I. c #FBFFFF",
"U. c #FEFDFF",
"Y. c #FDFDFE",
/* pixels */
"A A K B A A Z S C C S C A A A P A A P A A S C A A B A A A A C S ",
"A A B K A A A A A A A A A A A A A A P A A A S C A P A A A A C C ",
"B P S S C A P P K l P M C A A A S Z C A K l L K K P A A A A A C ",
"P A Z Z A Y j v c c h l U C A A S Z A S k W $ . B A A A B A A A ",
"A C S S C k ^ 9.s.w.| c z C U A A P P N w 9.k.q.F A A A B B A A ",
"S C Z Z I b + k.G.V.3.g v S S C P P P D y z.V.z.e A A B B B A A ",
"A A S C B v q s.G.Z.M.O.x A A P P B C v : g.V.v.8 A A B B B A A ",
"A A A Y B k 0 t.G.I.V.g.~ N B K A P A b : s.V.z.8 A C B B A A A ",
"A A B B B v > s.K.P.G.z.>.6 l K P A A b * s.V.v.7 A C B P A A A ",
"A A K B B k > t.J.U.=.w.t.} m B A A A H * t.S.M.6 C C C A A A A ",
"A A A B A z s t.K.G.t 2.k.6.# N Z S C D , t.S.M.7 C S C C A C A ",
"A A C A A z = t.S.V.* { k.g.@.R J S M v , s.S.v.7 S C C A A C A ",
"B C A A A v , g.G.M.# T %.s.w.p v Y B D , t.V.z.7 S A A A A A B ",
"B C C A A v , g.S.M.7 D > 9.g.;.x B S G ; t.V.z.7 S A A P A A A ",
"A A C Z A k = t.S.z.T S 4 $.z.g...k B G * g.S.M.6 A A A A A A A ",
"A A C A A N > t.S.v.. C S 7 4.z.,.Q k D * g.V.M.7 C A A A A A A ",
"C A A A A D : g.S.z.T A S b  .t.z.X.E < , s.S.M.7 C A A A A B B ",
"C C A B A D i k.V.z.T A C k 9 -.v.k.% E , t.S.v.7 C A A A A B B ",
"P A P B A D : g.V.v.E A A V 2 ( s.g.&.= X w.V.M.6 A A A A A A A ",
"P A P A A D : s.V.z.8 A A I l T o.t.w.' u s.G.M.6 A A A P P A A ",
"P A A A C D - s.C.z.8 A A Y B z f <.z.r.a g.Z.M.d K A A P P A A ",
"A A S C C D - s.V.z.8 A A A B B n ] v.C.*.M.I.C.d K A A A A A A ",
"Z Z C A A D O g.S.v.8 A S S A A B 6 :.C.G.L.U.M.d B A A A A A A ",
"Z Z S B A D r k.S.M.8 A S S A A A D [ g.G.P.U.M.7 A A A A A A A ",
"Z S P C A D o k.S.v.3 S C B A A A Z F +.M.K.I.v.8 A A A A A C C ",
"A C B P P N & w.M.g.) S S A A A S S A _ 1.M.C.s.b A A A A C C C ",
"A A B P A M / 5.w.5.` C M C A P A A C N #.5.t.7.D A A A A A B B ",
"A P B P P B   f ; ! 1 B Y P A C A P K B 2 _ > @ V A A A A A B B ",
"C P A A A P V G b D B B B C A S A A B B M 5 G G B A A A A A B K ",
"A A C A P P A M S A B K B S C C A A B Y S C S M A A A A A A A K ",
"A A S S A A A A A A A K P P A A A A A C C C I C A A A A C C A A ",
"P A C C A A A A A A A K B A A S A A S Z A S M A A A A A S S A A "
};
