/* XPM */
static char *_e5ee25662664c5090fa0709a6cfa320XrLhrnvsQmAK4KbM[] = {
/* columns rows colors chars-per-pixel */
"32 32 168 2 ",
"   c #BE1A1C",
".  c #BB221A",
"X  c #B61D22",
"o  c #BC1B20",
"O  c #B42321",
"+  c #C80C0D",
"@  c #D40000",
"#  c #DD0602",
"$  c #D40C03",
"%  c #DC0B05",
"&  c #D7040B",
"*  c #D30E0B",
"=  c #DA0F0A",
"-  c #C3140C",
";  c #C9140B",
":  c #D5110C",
">  c #D3180F",
",  c #CD0F11",
"<  c #DB0715",
"1  c #D40C11",
"2  c #DD0B12",
"3  c #D30F1A",
"4  c #C71012",
"5  c #CD1413",
"6  c #C91914",
"7  c #CC131A",
"8  c #C21F18",
"9  c #CA1C1B",
"0  c #D41413",
"q  c #DF1113",
"w  c #D41A13",
"e  c #D6151A",
"r  c #D91018",
"t  c #D61D1B",
"y  c #DC1A1A",
"u  c #E40301",
"i  c #EC0302",
"p  c #E20902",
"a  c #EC0A03",
"s  c #E6040B",
"d  c #ED0609",
"f  c #E40C0C",
"g  c #EA0B0A",
"h  c #F50201",
"j  c #FC0201",
"k  c #F20904",
"l  c #FD0A03",
"z  c #F4040A",
"x  c #FC020A",
"c  c #F40A0A",
"v  c #FD0C0B",
"b  c #EB1203",
"n  c #E6110B",
"m  c #E9140C",
"M  c #ED0211",
"N  c #E20B12",
"B  c #EB0B10",
"V  c #F40513",
"C  c #FD0314",
"Z  c #FF0B13",
"A  c #E41512",
"S  c #EB1110",
"D  c #E11A13",
"F  c #E51219",
"G  c #E71C18",
"H  c #C9211E",
"J  c #CE1F26",
"K  c #CC2723",
"L  c #CA2B28",
"P  c #D22525",
"I  c #DB2323",
"U  c #DB312B",
"Y  c #D32B38",
"T  c #C93436",
"R  c #CD3A33",
"E  c #D73835",
"W  c #E22C2B",
"Q  c #E9283B",
"!  c #E93C3A",
"~  c #E43B34",
"^  c #CA3E4B",
"/  c #DC3640",
"(  c #D53B43",
")  c #DF3945",
"_  c #BF4446",
"`  c #C94141",
"'  c #C54E4A",
"]  c #D44346",
"[  c #DD434B",
"{  c #D54F56",
"}  c #CE575B",
"|  c #DC5552",
" . c #D35A52",
".. c #DD5A5E",
"X. c #EB4B4D",
"o. c #F3464A",
"O. c #E3534E",
"+. c #EC524A",
"@. c #F4524F",
"#. c #E74E53",
"$. c #EE525F",
"%. c #F35C56",
"&. c #F05C5C",
"*. c #FF6B5C",
"=. c #EB6263",
"-. c #E06A6A",
";. c #FF6465",
":. c #E26A74",
">. c #FF6D76",
",. c #E57D7C",
"<. c #EB787F",
"1. c #FF7573",
"2. c #EA827E",
"3. c #EC8189",
"4. c #FE8383",
"5. c #FF8A87",
"6. c #FF8B88",
"7. c #FF9188",
"8. c #FF9596",
"9. c #F4959D",
"0. c #FD9B9B",
"q. c #FFA495",
"w. c #FFA5A4",
"e. c #FFAEA7",
"r. c #FDADAE",
"t. c #FFB1AC",
"y. c #FFCDC5",
"u. c #FFD5D2",
"i. c #FFDBD5",
"p. c #FFDDDB",
"a. c #FFE7D6",
"s. c #FFE4DD",
"d. c #FFECDC",
"f. c #FFF0DC",
"g. c #FFDEE6",
"h. c #FFDCE3",
"j. c #FFE5E2",
"k. c #FFE3E4",
"l. c #FFE3E7",
"z. c #FFE5E5",
"x. c #FFE9E3",
"c. c #FFE8E1",
"v. c #FFEAE4",
"b. c #FFEBE3",
"n. c #FFE1E9",
"m. c #FFE7E9",
"M. c #FFE7EA",
"N. c #FFE7ED",
"B. c #FFE5EB",
"V. c #FFE9E9",
"C. c #FFE9EA",
"Z. c #FFEDE8",
"A. c #FFEBEF",
"S. c #FFE8EF",
"D. c #FFECEF",
"F. c #FFEBEC",
"G. c #FFF6E2",
"H. c #FFF1E6",
"J. c #FFF1EA",
"K. c #FFF0EF",
"L. c #FFF1ED",
"P. c #FFE5F3",
"I. c #FFE5F1",
"U. c #FFEBF6",
"Y. c #FFEEF4",
"T. c #FFF3F4",
"R. c #FFF3F4",
"E. c #FFF0F8",
/* pixels */
"j j x x x j j h j l h h j j j j j j j j h x C x h h j j j j j h ",
"j j x x j j j j j h h h h j j j j j j j h x v z h j j j j j j h ",
"x j j j j j j j x v j j j h j j j h h h v j h h j j j j j j j j ",
"x j j j h j j j h h k u A : e 5 , y : % u l l h j j x j j j j j ",
"h h j h h h h j j k A K | ,.V.D.N.9.:.[ y a h j j j j j j j j j ",
"h h j h h h h j d * O.i.j.V.T.A.E.U.I.g.0.U # v j j j j j j x x ",
"j j j j j j j d e =.v.J.V.g.n.n.g.g.k.Z.f.a.! s z x j j h j x x ",
"j j j j j j j f ( n.K.Z.2.` X o   T _ t.G.d.w.3 M x j j h j j x ",
"j j j j j j j 2 <.A.m.-.- n g p u m 2   0.c.p.#.N x j j j j j x ",
"j j x j j j j 0 k.m.p.O m h j j j h x N ] s.s.4.N x j j j j j j ",
"j j x x j j h 5 s.H.s.O @ l j l j l x d 4 u.i.y.f j j j j x j j ",
"j j x x j j k > 2.c.j.' t g c h h j j c A 0 8 6 d j j j x x j j ",
"j j j j j j h 2 [ g.k.r...J r g v j j j i d g d x x x x j j j j ",
"j j j j j j h g 3 >.k.m.g.h.4.X.W * G f p c h j x x x x j j j j ",
"x x j j j j j h c = +.i.k.m.D.V.D.N.3.{ L : k j j j j j j j j h ",
"x j j j j j j j j k : K ..0.V.D.K.A.I.n.p.1.I f h j j j j h h z ",
"j j j x x x x j h l u N F 1 I ~ %.7.p.z.z.A.I.^ f j x x x h l j ",
"j j j x x x h k a a k Z h x h k p > .  .r.m.U.N.t h x x x h j j ",
"j l j l j x a $ - ; g h j j j j v d g = t 4.K.b.*.b l h j j j x ",
"v h j h j h m y.i.i.& x j j j j h x l h c P c.H.q.$ i j l j j j ",
"h j j j j i % 1.j.N.Q C l j h x v j j j z 7 Y.K.u.t g h j j h x ",
"j l h h j v g @.D.A.$.2 i l j h j j j v s / N.D.8.+ s x j j j h ",
"x h i v h i v w s.c.e.R * u c h h h k # 9 4.D.D.&.q c j h j x x ",
"j x c i j j j f O.s.d.s.=.E H 6 w ; U O.w.j.z.r.P s x j l j h j ",
"j j z z j j j k 1 1.z.R.T.A.Y.A.Z.Z.K.K.K.V.h.) f h j j j j j j ",
"j j x x j j j x k 5 } m.N.Y.T.T.T.V.T.K.v.0.Y < h j j j j j j j ",
"j j j j h h j j j a q 7 o.;.5.u.p.s.6.%.! 0 B h j j j j j j j j ",
"j j j j h h x j j j l h k p D 6     0 n i h h v j j j j j j j j ",
"j j j j j j z z j h h l h h i a s B c h h v k i z z x j j j j h ",
"j j j j j j j j x h l h j l j j v x j j j j h c z z j j j j j z ",
"h j x x x j j h h v h j j h z z h h h l j j l h j j j j j j x x ",
"h j x x x j j j x i j j j x V M d v j j j j h h j j j j j j x x "
};
