/* XPM */
static char *_9263f6aed8e42c991c39960ac44a807Bmp7mQmluAJ6g1lM[] = {
/* columns rows colors chars-per-pixel */
"32 32 152 2 ",
"   c #FFF704",
".  c #F6FE02",
"X  c #FEFE02",
"o  c #FDF60D",
"O  c #F6FC0E",
"+  c #FEFD0B",
"@  c #FDF713",
"#  c #F5FA16",
"$  c #FDFC12",
"%  c #FDF71E",
"&  c #F6FB1D",
"*  c #FCFB1B",
"=  c #F6F425",
"-  c #FBF726",
";  c #F6FA23",
":  c #FCFB23",
">  c #F7F62A",
",  c #F8F52E",
"<  c #F6F92C",
"1  c #FBFB2B",
"2  c #F5F731",
"3  c #FBF634",
"4  c #F6FA33",
"5  c #FCFA34",
"6  c #F5F43B",
"7  c #FAF738",
"8  c #F6F93B",
"9  c #FBFB3C",
"0  c #F7F642",
"q  c #F9F545",
"w  c #F5FB45",
"e  c #FBFA45",
"r  c #F2F649",
"t  c #FCF64E",
"y  c #F6FB4D",
"u  c #FCFA4C",
"i  c #F3F554",
"p  c #FAF754",
"a  c #F5FA55",
"s  c #FCFB53",
"d  c #F3F659",
"f  c #F9F45C",
"g  c #F3F95A",
"h  c #FEFD5C",
"j  c #EFF368",
"k  c #F0F261",
"l  c #FBF565",
"z  c #F6FA63",
"x  c #FDFD64",
"c  c #F6F76F",
"v  c #F5FB6B",
"b  c #FEFC6B",
"n  c #EFF474",
"m  c #EBF078",
"M  c #F3F475",
"N  c #FCF477",
"B  c #F5FB72",
"V  c #FFFF73",
"C  c #F7F07C",
"Z  c #FCF67B",
"A  c #F1FA7D",
"S  c #F9FA78",
"D  c #F8FA7B",
"F  c #FFFF78",
"G  c #FEFF79",
"H  c #FDFE7C",
"J  c #FFFF7C",
"K  c #FFFF7E",
"L  c #FFFF7F",
"P  c #FFFE7C",
"I  c #F1F086",
"U  c #F5FD84",
"Y  c #F7FF81",
"T  c #FAFA80",
"R  c #FFFF84",
"E  c #FFFE86",
"W  c #F6F388",
"Q  c #FAF68A",
"!  c #FFFE8C",
"~  c #F5F293",
"^  c #F6FB94",
"/  c #FFFF91",
"(  c #FDFF92",
")  c #FFFB96",
"_  c #FFFF94",
"`  c #FFFF95",
"'  c #FFFF97",
"]  c #FEFF93",
"[  c #F1F49B",
"{  c #FCFE99",
"}  c #FFFF98",
"|  c #FFFF9C",
" . c #FFFF9D",
".. c #FFFF9E",
"X. c #FFFF9F",
"o. c #FEFE9D",
"O. c #EEF2A5",
"+. c #F5FBA1",
"@. c #FFFFA1",
"#. c #FFFFA6",
"$. c #FFFFA7",
"%. c #FFFEA3",
"&. c #FFFFA8",
"*. c #FFFFAA",
"=. c #FFFFAC",
"-. c #FFFFAD",
";. c #FFFFAE",
":. c #FFFFAC",
">. c #F7F3B4",
",. c #FBF2B1",
"<. c #FFFFB3",
"1. c #FFFFB4",
"2. c #FFFFB5",
"3. c #FFFFB6",
"4. c #FFFFB7",
"5. c #FFFFB3",
"6. c #FFFFB8",
"7. c #FFFFB9",
"8. c #FFFFBA",
"9. c #FFFFBC",
"0. c #FFFFBD",
"q. c #FFFFBF",
"w. c #FFFFBB",
"e. c #F7F6C6",
"r. c #FFFFC1",
"t. c #FFFFC4",
"y. c #FFFFC5",
"u. c #FFFFC6",
"i. c #FFFFC4",
"p. c #F6F7CB",
"a. c #FFFFC9",
"s. c #FFFFCA",
"d. c #FFFFCB",
"f. c #FFFFCC",
"g. c #FFFFCD",
"h. c #FFFFCE",
"j. c #FFFFCF",
"k. c #FFFFCC",
"l. c #FFFFD1",
"z. c #FFFFD3",
"x. c #FFFFD4",
"c. c #FFFFD3",
"v. c #FFF8D9",
"b. c #FFFFD8",
"n. c #FFFFDE",
"m. c #FFFFDA",
"M. c #FFFFE4",
"N. c #FFFFE9",
"B. c #FFFFEC",
"V. c #FFFEED",
"C. c #FFFBF1",
"Z. c #FFFFF8",
/* pixels */
"$ + X X X X X X + + X X X X X X X X X X . . X . X X X X X X X X ",
"+ X X X X X X X + + X X X X X X X X X X . . X . X X   X X X X X ",
". . X X X X X X X X X X X . X . . X X X X . X X X X X X X . X X ",
"< 1 : # . . . X X X X + O : 9 e 9 1 + X X . X X X X X o 5 2 * . ",
") } K u * X X X X X + $ 4 b -.r.2.R 1 X + X X X X X X 5 %.$.s : ",
",.8.$.z & X X X X X X & a ..b.C.B.2.e + + X X X X X + s f.l.h % ",
"~ -.<.D : X X X X X X ; v *.f.v.N.r.s @ + X X X X $ : b b.f.t $ ",
"M ..r.^ 5 X X + X X X < U 0.8.>.n.t.x - $ X X X X * 2 F b.d.e + ",
"i ] f.0.9 X X X X X X 9 2.f...I d.r.K 9 % + X X X * w ` f.2.8 + ",
"6 K x.f.t $ X X X X + e t.x.K k +.8.` a : + X X X % g %.t...2 X ",
", x l.f.h : $ X X X % h d.f.f q n *.-.D < + X X X > B -.2.T ; X ",
": p t.f.V 5 * X X $ 3 F t.0.q 1 i ` 0.} 7 + X X X < ] 0.$.l % X ",
"+ 3 -.r.E e * X X : f } 8.] 2 * 9 K l.8.8 + + X X 4 <.f.} t * X ",
"X > ] 8.} h * X . 1 Z 2.-.c : + : x l.f.y @ + + + w t.b.R 3 $ X ",
"X - Z <.*.v : X . 2 %.f...p * X + e t.l.V > $ + $ s l.x.x % + X ",
"X : l $.2.A 1 X + 6 r.x.R 9 @ X X 5 *.f.` e @ + : b l.d.t + + X ",
". * s } r...< X $ t f.f.h # $ X X = ! 8.%.z % * 0 R t.<.9 $ X X ",
"X $ 6 R f.2.9 $ - b l.t.e X X X X % b $.<.Y - % f %.0.` 2 X X X ",
"X $ = b l.d.y - q R f.<.7 X X X X * y ! r.%.3 1 N <.8.E < X X X ",
"X + * h l.l.x 0 l ..r.{ 1 X X X X $ < V d.8.e 7 W 0.-.c : X X X ",
"X X + e f.b.K d Q -.-.B : X X X X + * p d.t.h r o.r...d : X X X ",
"X . X 3 r.b...m -.0.` i * X X X X X + 9 0.f.K j r.t.E 0 * X X X ",
"X X X 3 %.l.8.O.x.t.F 4 $ X X X X X X 5 } t.$.[ n.d.V < + X X X ",
". X X 1 C r.f.p.N.t.x : + X X X X X X : N 2.r.e.B.t.h * . X X X ",
". X X % l *.x.N.B.0.y $ + X + X X X X @ s ..x.B.Z.t.e + X X + X ",
". X X @ u ! r.b.l.%.9 + X X + X X X X $ 9 K t.N.M.-.5 X X . + + ",
"X X X + 1 h ] %.! x : . X X + X X X X + : s ] -.%.F : X X . + X ",
"X X X + $ < y a w 4 O X X X X X X X X + $ - y z g e @ X . . X X ",
"X X X X X + & & # O X X X X X X X . X X X + # & # $ X X X . X X ",
"X X X X X X X X X X X X X X X X X . X X X X X . . X X X . . X X ",
"X X X X X X X X + X X X X X X X X X X X X X X X X X +   . . X X ",
"+ X X X X X X X + X X X X X X X X . + X X X X X X X o + X X X X "
};
